projects/oblique/icons/Crop.svg

<?xml version="1.0" encoding="UTF-8"?><svg id="a" xmlns="http://www.w3.org/2000/svg" viewBox="0 0 24 24"><path d="M21,17.00025h-2.5V5.50025H7v-2.5h-1.5v2.5h-2.5v1.5h2.5v11.5h11.5v2.5h1.5v-2.5h2.5v-1.5ZM7,17.00025V7.00025h10v10H7Z"/></svg>

<svg xmlns="http://www.w3.org/2000/svg" viewBox="0 0 24 24"><title>Crop</title><path d="M21,17.00025H18.5v-11.5H7v-2.5H5.5v2.5H3v1.5H5.5v11.5H17v2.5h1.5v-2.5H21Zm-14,0v-10H17v10Z" fill="#171717"/></svg>
